X: 1
T: 生日歌
M: 3/4
L: 1/4
Q: 100
K: C
%%stretchlast .7
%%staves {(PianoRightHand) (PianoLeftHand)}
V:PianoRightHand clef=treble
V:PianoLeftHand clef=bass
[V: PianoRightHand]
z G/2G/2 |: A G c | B2 G/2G/2 | A G d |
c2 G/2G/2 | g e c | B A f/2f/2 | e c d |
[1 c2 G/2G/2 :|[2 (c3 | c3) |]
[V: PianoLeftHand]
z2 |: C,3 | G,3 | C,3 |
C,3 | C,3 | F,3 | G,3 |
[1 C,3 :|[2 C,3 | C,3 |]
